X:335
T: Shepherd's Flock
S: "First Collection of Traditional Irish Music" (M.Mulvihill)
Z: B.Black
N: alternate for m14: eaac dBAG
L: 1/8
M: 4/4
R: reel
K: G
e2 ge edBd|eA (3AAA edBd|e2 ge edBe|dG (3GFG dGBd|
e2 ge edBd|eAA^G A2 BA|G2 Bd g3 a|bgaf g2||
fg|eaaf g3 f|eaag ed (3Bcd|eaaf g2 ag|e2 de gdBd|
eaaf g3 f|eaac' d'bag|eaaf g2 ag|e2 de gdBd||
